X:1125
T:Sailor's Bonnet, The
M:C|
R:Reel
S:Michael Coleman
K:D
|:A2FA df~f2|dfef dBB2|A2FA dfec|dBAF ADD2:|
|:afab afdf|afef dB~B2|fbba bafa|~b2af fee2|
bf~f2 afef|afef dBB2|~A2FA dfec|dBAF ADD2:|
